X: 8
T:Terre D'Auvergne
M:4/4
L:1/4
S:French Creek
O:,|
K:D
A,|DEFG|A2GF|EFED|CB,A,A,|DEFG|A2GF|GFEC|D3:||!
F|A3F|A2FA|G2F2|E2FG|F2D2|1D2CD|EDCB,|A,3:|2CDEC|D4-|D3||
